packages/core/src/svgs/tokens/mono/GRAIN.svg

<svg width="24" height="24" viewBox="0 0 24 24" fill="none" xmlns="http://www.w3.org/2000/svg">
<path d="M12.2787 20.0892V21.8263C12.2787 21.9421 12.2154 21.9948 12.0997 21.9948L11.8996 22C11.7785 22 11.7206 21.9474 11.7154 21.8316V20.0576C11.7146 20.0503 11.7123 20.0433 11.7087 20.037C11.705 20.0306 11.7001 20.0252 11.6944 20.0207C11.6851 20.0093 11.672 20.0018 11.6575 19.9997C11.0837 19.947 10.6257 19.8049 9.98875 19.6048C6.77764 18.5995 4.57725 16.0727 4.15613 12.8827C3.70868 9.52943 6.22491 7.01319 8.5148 4.88124C8.73589 4.67067 8.89908 4.42853 9.08332 4.19691C9.08332 4.18638 9.08858 4.18638 9.09911 4.18111H9.1149C9.12543 4.18111 9.1307 4.18111 9.13595 4.19164L9.14122 4.20744C9.3202 4.98126 9.33599 5.53924 10.0572 6.14989C10.6467 6.6447 12.2207 7.91335 11.2732 8.71876C11.1152 8.85036 10.931 8.89774 10.7257 8.85562C10.0722 8.70848 9.48819 8.34312 9.07004 7.8197C8.6519 7.29631 8.42449 6.64609 8.4253 5.97617C8.41719 5.96607 8.40616 5.95873 8.39373 5.95512C8.38314 5.95158 8.37184 5.95069 8.36083 5.95252C8.34983 5.95437 8.33942 5.95886 8.33055 5.96564C6.48812 7.61856 4.91416 9.43994 4.77203 11.9667C4.59305 15.1883 7.21457 17.9941 10.2624 19.1258C10.673 19.2838 11.1468 19.3522 11.5942 19.4627C11.6095 19.467 11.6253 19.4678 11.6408 19.4651C11.6563 19.4622 11.671 19.4561 11.6838 19.447C11.6947 19.4385 11.7037 19.4277 11.7101 19.4154C11.717 19.4024 11.7206 19.3879 11.7206 19.3733V6.70787C11.7209 6.69609 11.7187 6.68437 11.7141 6.67349C11.7096 6.66261 11.7028 6.65281 11.6944 6.6447C11.4204 6.39244 11.157 6.12902 10.9047 5.8551C9.90449 4.69172 10.9468 2.99143 11.8153 2.07547C11.8417 2.04916 11.868 2.0281 11.9049 2.01757C11.9532 1.99896 12.006 1.99503 12.0566 2.00627C12.1071 2.0175 12.1532 2.04341 12.1891 2.08074C12.9945 2.99669 13.6789 4.04951 13.3841 5.29184C13.2788 5.73928 12.805 6.19199 12.4365 6.49205C12.3876 6.53359 12.3482 6.58518 12.3209 6.6433C12.2936 6.70144 12.2793 6.76475 12.2787 6.82894V19.3522C12.2787 19.368 12.2787 19.3837 12.2891 19.3996L12.3259 19.4364C12.3398 19.4476 12.3559 19.4557 12.3732 19.4603C12.3904 19.4648 12.4085 19.4657 12.426 19.4627C12.8471 19.3733 13.284 19.2943 13.6893 19.1469C16.7531 18.0152 19.4114 15.1936 19.2325 11.9456C19.0956 9.48731 17.4847 7.51854 15.6107 5.94458C15.6051 5.94179 15.5987 5.94034 15.5923 5.94034C15.5859 5.94034 15.5797 5.94179 15.5739 5.94458C15.5679 5.94665 15.5624 5.95028 15.5582 5.95512L15.5476 5.97617C15.5511 6.54493 15.3925 7.10291 15.0904 7.58487C14.7884 8.06681 14.3554 8.45281 13.842 8.6977C12.8735 9.21358 12.0786 8.52398 12.5892 7.58698C12.9998 6.82369 13.7894 6.37623 14.2211 5.88142C14.6843 5.34974 14.7159 4.83386 14.8265 4.22323C14.8316 4.18638 14.8475 4.18111 14.8738 4.20744C15.316 4.70226 15.953 5.33922 16.7795 6.12356C18.6797 7.91335 20.3011 10.5296 19.8062 13.1616C19.0956 16.9413 16.2793 19.3469 12.3418 20.0207C12.3049 20.026 12.2839 20.0523 12.2787 20.0892Z" fill="white"/>
<path d="M15.9474 8.10832C16.1211 9.88757 15.3894 11.7721 13.289 11.9932C13.0258 12.0195 12.8152 11.9827 12.6678 11.8774C12.0626 11.4668 12.6363 10.5983 13.1206 10.2929C14.1312 9.64019 15.1894 9.07165 15.9 8.09779C15.9264 8.06094 15.9421 8.06621 15.9474 8.10832ZM10.8413 11.9932C8.63031 11.8353 7.93019 9.91385 8.03021 8.09779C8.03021 8.04515 8.05127 8.04515 8.08285 8.08727C8.79877 9.07691 10.02 9.71917 11.0676 10.4456C11.4887 10.7404 11.6467 11.1141 11.5414 11.5773C11.4624 11.9037 11.1833 12.0142 10.8413 11.9932ZM10.8307 15.2886C8.52503 14.9517 7.96704 13.3039 8.03021 11.3509C8.03021 11.2615 8.05653 11.2562 8.10917 11.3299C8.76192 12.3511 9.77265 12.8039 10.8149 13.5409C11.1361 13.762 11.3413 13.9462 11.4308 14.0883C11.7151 14.5305 11.6151 15.4043 10.8307 15.2886ZM15.9527 11.3984C16.1263 13.2724 15.3578 15.1043 13.1312 15.278C12.5152 15.3306 12.2625 14.7095 12.5099 14.2726C12.7047 13.9199 12.9838 13.6356 13.3364 13.4145C14.1734 12.9039 15.4209 12.2302 15.8527 11.3826C15.9052 11.2721 15.9421 11.2773 15.9579 11.3984H15.9527ZM11.1571 18.3839C8.76718 18.447 7.88808 16.4888 8.05127 14.5411C8.05653 14.4726 8.07759 14.4674 8.11444 14.5199C8.81982 15.4676 9.74625 15.9623 10.7043 16.5887C11.0939 16.852 11.5624 17.2152 11.594 17.6785C11.6098 17.9364 11.5045 18.1522 11.2834 18.3365C11.2494 18.3653 11.2068 18.3819 11.1623 18.3839H11.1571ZM15.1367 17.4995C14.8519 17.8174 14.4944 18.0619 14.0949 18.2122C13.6953 18.3625 13.2654 18.4141 12.8415 18.3627C12.7505 18.3499 12.6677 18.3028 12.61 18.2312C12.0783 17.5258 12.7521 16.9678 13.3627 16.5572C14.2313 15.9782 15.321 15.3991 15.8895 14.5252L15.9052 14.5095C15.911 14.5081 15.917 14.5084 15.9226 14.5102C15.9282 14.5121 15.9331 14.5155 15.9368 14.5199L15.9474 14.5358C16.0526 15.5307 15.8315 16.7467 15.1367 17.4995Z" fill="white"/>
</svg>

<svg xmlns="http://www.w3.org/2000/svg" width="24" height="24" fill="none" viewBox="0 0 24 24">
    <path fill="#fff" d="M12.279 20.09v1.736c0 .116-.064.169-.18.169l-.2.005c-.12 0-.178-.053-.184-.168v-1.774a.05.05 0 0 0-.02-.037.06.06 0 0 0-.037-.021c-.574-.053-1.032-.195-1.67-.395-3.21-1.006-5.41-3.532-5.832-6.722-.447-3.354 2.069-5.87 4.359-8.002.22-.21.384-.452.568-.684 0-.01.006-.01.016-.016h.016c.01 0 .016 0 .02.01l.006.016c.18.774.195 1.332.916 1.943.59.495 2.164 1.763 1.216 2.569a.62.62 0 0 1-.547.137 2.95 2.95 0 0 1-2.3-2.88.06.06 0 0 0-.032-.02.07.07 0 0 0-.063.01c-1.843 1.653-3.417 3.474-3.559 6-.179 3.222 2.443 6.028 5.49 7.16.411.158.885.226 1.332.337a.1.1 0 0 0 .09-.016.1.1 0 0 0 .037-.074V6.708a.08.08 0 0 0-.027-.063 14 14 0 0 1-.79-.79c-1-1.163.043-2.864.911-3.78a.2.2 0 0 1 .09-.057.26.26 0 0 1 .284.063c.806.916 1.49 1.969 1.195 3.21-.105.448-.579.901-.947 1.201a.45.45 0 0 0-.158.337v12.523c0 .016 0 .032.01.048l.037.036a.13.13 0 0 0 .1.027c.421-.09.858-.169 1.263-.316 3.064-1.132 5.722-3.953 5.544-7.201-.137-2.459-1.748-4.427-3.622-6.001a.04.04 0 0 0-.037 0 .04.04 0 0 0-.016.01l-.01.021a2.99 2.99 0 0 1-1.706 2.722c-.969.516-1.763-.174-1.253-1.111.41-.763 1.2-1.21 1.632-1.706.463-.531.495-1.047.605-1.658q.008-.055.048-.016.665.741 1.905 1.917c1.9 1.79 3.522 4.406 3.027 7.038-.71 3.78-3.527 6.185-7.464 6.859-.037.005-.058.031-.063.068"/>
    <path fill="#fff" d="M15.947 8.108c.174 1.78-.558 3.664-2.658 3.885-.263.027-.474-.01-.621-.116-.605-.41-.032-1.279.453-1.584 1.01-.653 2.068-1.221 2.779-2.195q.04-.054.047.01m-5.106 3.885c-2.21-.158-2.91-2.08-2.81-3.895 0-.053.02-.053.052-.01.716.989 1.937 1.631 2.985 2.358.42.294.579.668.473 1.131-.079.327-.358.437-.7.416m-.01 3.296c-2.306-.337-2.864-1.985-2.8-3.938q0-.133.078-.021c.653 1.021 1.664 1.474 2.706 2.21q.481.334.616.548c.284.443.184 1.316-.6 1.2m5.122-3.89c.173 1.873-.595 3.705-2.822 3.879-.616.053-.869-.569-.621-1.005.195-.353.474-.637.826-.858.837-.511 2.085-1.185 2.517-2.032.052-.11.09-.106.105.015zm-4.796 6.985c-2.39.063-3.269-1.895-3.106-3.843q.009-.101.063-.021c.706.948 1.632 1.442 2.59 2.069.39.263.858.626.89 1.09.016.257-.09.473-.31.658a.2.2 0 0 1-.122.047zm3.98-.884a2.65 2.65 0 0 1-2.296.863.36.36 0 0 1-.231-.132c-.532-.705.142-1.263.753-1.674.868-.579 1.958-1.158 2.527-2.032l.015-.016a.03.03 0 0 1 .018.001q.008.003.014.01l.01.016c.106.995-.115 2.21-.81 2.964"/>
</svg>
